assets/img/icon-facebook.svg

<svg height="30" viewBox="0 0 30 30" width="30" xmlns="http://www.w3.org/2000/svg"><g fill="none" transform=""><path d="m28.3447368 0h-26.68947364c-.9141766 0-1.65526316.74108656-1.65526316 1.65526316v26.68947364c0 .9141766.74108656 1.6552632 1.65526316 1.6552632h14.37105264v-11.6026316h-3.8973684v-4.5394737h3.8973684v-3.3315789c0-3.8763158 2.368421-5.98421054 5.8210526-5.98421054 1.1672119-.00312356 2.3337663.05573122 3.4947369.17631579v4.03947369h-2.3842106c-1.8815789 0-2.2447368.89210526-2.2447368 2.20526316v2.8947368h4.4973684l-.5868421 4.5394737h-3.9105263v11.6026316h7.6315789c.9141766 0 1.6552632-.7410866 1.6552632-1.6552632v-26.68947364c0-.9141766-.7410866-1.65526316-1.6552632-1.65526316z" fill="#4267b2"/><path d="m20.4457279 30v-11.3891742h3.8474408l.577375-4.4559595h-4.4248158v-2.8414814c0-1.2915825.3572994-2.16469226 2.2085242-2.16469226h2.3457479v-3.97549083c-1.1439593-.11854893-2.293428-.17632119-3.4435371-.17307205-3.3995221 0-5.727146 2.06653194-5.727146 5.87411704v3.2806195h-3.8293169v4.4559595h3.8344951v11.3891742z" fill="#fff"/></g></svg>

<?xml version="1.0" encoding="UTF-8"?>
<svg width="30px" height="30px" viewBox="0 0 30 30" version="1.1" xmlns="http://www.w3.org/2000/svg" xmlns:xlink="http://www.w3.org/1999/xlink">
    <!-- Generator: Sketch 51.2 (57519) - http://www.bohemiancoding.com/sketch -->
    <title>flogo_RGB_HEX-114</title>
    <desc>Created with Sketch.</desc>
    <defs></defs>
    <g id="Symbols" stroke="none" stroke-width="1" fill="none" fill-rule="evenodd">
        <g id="sns-icon-copy" transform="translate(-11.000000, -11.000000)" fill-rule="nonzero">
            <g id="flogo_RGB_HEX-114" transform="translate(11.000000, 11.000000)">
                <path d="M28.3447368,0 L1.65526316,0 C0.741086559,-5.59771723e-17 1.11954345e-16,0.741086559 0,1.65526316 L0,28.3447368 C1.11954345e-16,29.2589134 0.741086559,30 1.65526316,30 L16.0263158,30 L16.0263158,18.3973684 L12.1289474,18.3973684 L12.1289474,13.8578947 L16.0263158,13.8578947 L16.0263158,10.5263158 C16.0263158,6.65 18.3947368,4.54210526 21.8473684,4.54210526 C23.0145803,4.5389817 24.1811347,4.59783648 25.3421053,4.71842105 L25.3421053,8.75789474 L22.9578947,8.75789474 C21.0763158,8.75789474 20.7131579,9.65 20.7131579,10.9631579 L20.7131579,13.8578947 L25.2105263,13.8578947 L24.6236842,18.3973684 L20.7131579,18.3973684 L20.7131579,30 L28.3447368,30 C29.2589134,30 30,29.2589134 30,28.3447368 L30,1.65526316 C30,0.741086559 29.2589134,5.59771723e-17 28.3447368,0 Z" id="Shape" fill="#4267B2"></path>
                <path d="M20.4457279,30 L20.4457279,18.6108258 L24.2931687,18.6108258 L24.8705437,14.1548663 L20.4457279,14.1548663 L20.4457279,11.3133849 C20.4457279,10.0218024 20.8030273,9.14869264 22.6542521,9.14869264 L25,9.14869264 L25,5.17320181 C23.8560407,5.05465288 22.706572,4.99688062 21.5564629,5.00012976 C18.1569408,5.00012976 15.8293169,7.0666617 15.8293169,10.8742468 L15.8293169,14.1548663 L12,14.1548663 L12,18.6108258 L15.8344951,18.6108258 L15.8344951,30 L20.4457279,30 Z" id="f" fill="#FFFFFF"></path>
            </g>
        </g>
    </g>
</svg>
